X:5693
T:Gan Ainm
R:Reel
S:(Phil Cunningham)
H:
N:
D:
Z:Adrian Scahill
M:4/4
L:1/8
K:D
FABd B2AF|ABdf e2de|f2ed BAdB|ABdD FEDE|\
(3FGA Bd B2AF|ABdf e2de|f2ed bafb|1 afef d4:|2 afef d2fa||\
b3f a3f|d2de edBA|FABd ABdb|afdf e2fa|\
bdd2 a3f|d2de edBA|FABd ABdb|afef d4:||
